X: 6737
T: Champion, The
R: hornpipe
M: 4/4
K: Dmajor
fe|:d2cB (3ABA FE|DFAd fAdf|gAeg fAdf|eAgf e2 (3ABc|
d2 cB (3ABA FE|DFAd fAdf|gAeg fAdf|1 eAce d2 fe:|2 eAce d2de||
|:(3fga df A2 Bc|d2 cB (3ABA FE|DFAd fAdf|(3ggg gf e2 de|
(3fga df A2 FE|DFAd fAdf|gAeg fAdf|1 eAce d2de:|2 eAce d2fe||

